www/assets/icons/settings_input_antenna.svg

<svg width="24" height="24" viewBox="0 0 24 24" xmlns="http://www.w3.org/2000/svg" fill='currentColor'><path d="M12 5.29492C8.13 5.29492 5 8.42492 5 12.2949H7C7 9.53492 9.24 7.29492 12 7.29492C14.76 7.29492 17 9.53492 17 12.2949H19C19 8.42492 15.87 5.29492 12 5.29492ZM13 14.5849C13.88 14.1949 14.5 13.3249 14.5 12.2949C14.5 10.9149 13.38 9.79492 12 9.79492C10.62 9.79492 9.5 10.9149 9.5 12.2949C9.5 13.3149 10.12 14.1949 11 14.5849V17.8849L7.59 21.2949L9 22.7049L12 19.7049L15 22.7049L16.41 21.2949L13 17.8849V14.5849ZM12 1.29492C5.93 1.29492 1 6.22492 1 12.2949H3C3 7.32492 7.03 3.29492 12 3.29492C16.97 3.29492 21 7.32492 21 12.2949H23C23 6.22492 18.07 1.29492 12 1.29492Z"/></svg>

<svg xmlns="http://www.w3.org/2000/svg" width="24" height="24" viewBox="0 0 24 24" fill='currentColor'><path d="M12 5.295c-3.87 0-7 3.13-7 7h2c0-2.76 2.24-5 5-5s5 2.24 5 5h2c0-3.87-3.13-7-7-7m1 9.29c.88-.39 1.5-1.26 1.5-2.29a2.5 2.5 0 0 0-5 0c0 1.02.62 1.9 1.5 2.29v3.3l-3.41 3.41L9 22.705l3-3 3 3 1.41-1.41-3.41-3.41zm-1-13.29c-6.07 0-11 4.93-11 11h2a9 9 0 0 1 18 0h2c0-6.07-4.93-11-11-11"/></svg>
